www/assets/icons/chalet.svg

<svg xmlns="http://www.w3.org/2000/svg" width="24" height="24" viewBox="0 0 24 24" fill='currentColor'><path d="m9.75 8 7.5 7.5-1.41 1.41-1.09-1.08v4.67h-4v-5h-2v5h-4v-4.67l-1.09 1.09-1.41-1.42zm12-1h-1.19l.75-.75-.71-.71L19.14 7h-.89v-.89l1.45-1.45-.71-.71-.74.74V3.5h-1v1.19l-.75-.75-.71.71 1.45 1.45V7h-.89L14.9 5.55l-.71.71.75.75h-1.19v1h1.19l-.75.75.71.71 1.45-1.45h.89v.89l-1.45 1.45.71.71.75-.75v1.18h1v-1.19l.75.75.71-.71-1.46-1.46V8h.89l1.45 1.45.71-.71-.74-.74h1.19z"/></svg>

<svg width="24" height="24" viewBox="0 0 24 24" xmlns="http://www.w3.org/2000/svg" fill='currentColor'><path d="M9.75 8L17.25 15.5L15.84 16.91L14.75 15.83V20.5H10.75V15.5H8.75V20.5H4.75V15.83L3.66 16.92L2.25 15.5L9.75 8ZM21.75 7H20.56L21.31 6.25L20.6 5.54L19.14 7H18.25V6.11L19.7 4.66L18.99 3.95L18.25 4.69V3.5H17.25V4.69L16.5 3.94L15.79 4.65L17.24 6.1V7H16.35L14.9 5.55L14.19 6.26L14.94 7.01H13.75V8.01H14.94L14.19 8.76L14.9 9.47L16.35 8.02H17.24V8.91L15.79 10.36L16.5 11.07L17.25 10.32V11.5H18.25V10.31L19 11.06L19.71 10.35L18.25 8.89V8H19.14L20.59 9.45L21.3 8.74L20.56 8H21.75V7Z"/></svg>
